Hatter-kde-dark/actions/16/resizecol.svg

<svg xmlns="http://www.w3.org/2000/svg" viewBox="0 0 16 16">
  <defs id="defs3051">
    <style type="text/css" id="current-color-scheme">
      .ColorScheme-Text {
        color:#dedede;
      }
      </style>
  </defs>
 <path style="fill:currentColor;fill-opacity:1;stroke:none" 
     d="M 7.5 2 L 7.5 14 L 8.5 14 L 8.5 2 L 7.5 2 z M 4.5 6 L 2.5 8 L 4.5 10 L 4.5 9 L 6.5 9 L 6.5 7 L 4.5 7 L 4.5 6 z M 11.5 6 L 11.5 7 L 9.5 7 L 9.5 9 L 11.5 9 L 11.5 10 L 13.5 8 L 11.5 6 z "
     class="ColorScheme-Text"
     />
</svg>

<?xml version="1.0" encoding="UTF-8"?>
<svg viewBox="0 0 16 16" xmlns="http://www.w3.org/2000/svg">
 <defs id="defs3051">
  <style id="current-color-scheme" type="text/css">.ColorScheme-Text {
        color:#dedede;
      }</style>
 </defs>
 <path class="ColorScheme-Text" d="m7.5 2v12h1v-12h-1zm-3 4-2 2 2 2v-1h2v-2h-2v-1zm7 0v1h-2v2h2v1l2-2-2-2z" fill="currentColor"/>
</svg>
